X:1
T:Carry Your Bible
T:Carry Your Bible
T:Robert Harkness
T:Frederick Pitman Morris, 1910
T:Public Domain Courtesy of the Cyber Hymnal™
C:Robert Harkness
Z:Public Domain
Z:Courtesy of the Cyber Hymnal™
%%score ( 1 2 ) ( 3 4 )
L:1/8
Q:1/4=110
M:6/8
K:Ab
V:1 treble 
V:2 treble 
V:3 bass 
V:4 bass 
V:1
 [CE][CE][CE] [CA]2 [DF] | [CE]3 [EA]3 | [EB][EB][EB] [EB][EG]E | [Ec]3- [Ec]2 z | %4
w: 1.~Car- ry your Bi- ble|with you,|Let all its bless- ings out-|flow; *|
w: 2.~Car- ry the word of|par- don,|Sweet- er each day it will|grow; *|
w: 3.~Car- ry the wond- rous|sto- ry,|Tell it to hearts plunged in|woe; *|
w: 4.~Car- ry the word of|prom- ise;|Sin- ners un- par- doned may|know *|
 [CE][CE][CE] [CA][CA][DF] | [CE]3 [EA]3 | [=DA]>[DA][DA] | [=DA][DB][Dc] | [EB-]3 [DB]3 || %9
w: It will sup- ply you each|mo- ment—|Take it wher-|ev- er you|go! *|
w: Some- where some heart will be|wait- ing—|Take it wher-|ev- er you|go! Take|
w: This word of gra- cious re-|demp- tion—|Take it wher-|ev- er you|go! *|
w: God’s path from sin un- to|safe- ty—|Take it wher-|ev- er you|go! *|
"^Refrain" [CE]>[CE][CE] [DE][DF][DG] | A3- [CA]3 | [DF]>[DF][EF] [=DF][EG][FA] | B3- [_DB]2 [DE] | %13
w: ||||
w: it wher- ev- er you go,|Take it|* wher- ev- er you go,|God’s mes- sage|
w: ||||
w: ||||
 [CE][EA][EB] [Ec]2 [EA] | [EA][EB][Ec] [Fd]2 [EB] | [Ee][Ec][EA] E<[Ec][DB] | A3- [CA]3 |] %17
w: ||||
w: * of love Sent down|from a- bove, Oh, take|it wher- ev- er you go!||
w: ||||
w: ||||
V:2
 x6 | x6 | x5 E | x6 | x6 | x6 | x3 | x3 | x6 || x6 | C2 D x3 | x6 | E2 =D x3 | x6 | x6 | %15
 x3 E/ x5/2 | C2 D x3 |] %17
V:3
 [A,,A,][A,,A,][A,,A,] [A,,E,]2 [A,,A,] | [A,,A,]3 [C,A,]3 | %2
w: ~ ~ ~ ~ ~|~ ~|
 [E,G,][E,G,][E,G,] [E,G,][E,B,][G,B,] | A,3- A,2 z | [A,,A,][A,,A,][A,,A,] [A,,E,][A,,E,][A,,A,] | %5
w: ~ ~ ~ ~ ~ ~|~ *|~ ~ ~ ~ ~ ~|
 [A,,A,]3 [C,A,]3 | [F,B,]>[F,B,][F,B,] | [B,,F,][B,,G,][B,,A,] | [E,G,]3- [E,G,]3 || %9
w: ~ ~|~ ~ ~|~ ~ ~|~ *|
 [A,,A,]>[A,,A,][A,,A,] [E,G,][E,A,][E,B,] | A,2 F, [A,,E,]3 | %11
w: ~ ~ ~ ~ ~ ~|~ you~go ~|
 [D,A,]>[D,A,][C,=A,] [B,,B,][B,,B,][B,,B,] | [E,G,]2 [F,A,] [E,G,]2 [B,,G,] | %13
w: ~ ~ ~ ~ ~ ~|you go ~ ~|
 [A,,A,][C,A,][E,G,] A,2 [C,A,] | [C,A,][B,,G,][A,,A,] [D,A,]2 [D,G,] | %15
w: ~ ~ ~ ~ ~|~ ~ ~ ~ ~|
 [C,A,][E,A,][E,C] [E,C]<[E,A,][E,G,] | A,2 F, [A,,E,]3 |] %17
w: ~ ~ ~ ~ ~ ~|you~go * *|
V:4
 x6 | x6 | x6 | A,3- A,2 x | x6 | x6 | x3 | x3 | x6 || x6 | A,,3- x3 | x6 | x6 | x3 A,2 x | x6 | %15
 x6 | A,,3- x3 |] %17

